X: 9794
T:Gan Ainm
R:Highland
S:Dermot Byrne, Donegal (Accordian)
A:Donegal
D:Tape of Concert, Teelin, Donegal
O:Ireland
Z:Bernie Stocks
M:4/4
L:1/8
K:A
cd|:(3efe ^de ceBe|A2cA EAcA|\
(3efe ^de ceBa|(3gfe (3dcB (3Ace (3agf|!
(3efe ^de ceBe|A2cA EAcA|\
(3efe ^de ceBa|(3gfe (3dcB A2ce||!
aAcA eAcA|dcde fBB2|aAcA eAca|(3gfe (3dcB A2ce|!
aAcA eAcA|dcde fBB2|aAcA eAca|(3gfe (3dcB A4||!
